X: 1
T: Major Molle
M: 4/4
L: 1/8
R: reel
K: Bdor
|:Bffe dcBA|Bffe d2c2|Bffg (3aaa af|ecAc e2dc:|
BF (3FFF dBcA|BF (3FFF d2 cd|1BF (3FFF dBce|
cAAc e2 dc:|2Bffg (3aaa af|ecAc e2 dc||
